Catalina-dark/actions/22/kdenlive-zindex-bottom.svg

<svg viewBox="0 0 22 22" xmlns="http://www.w3.org/2000/svg">
<defs>
<style id="current-color-scheme" type="text/css">.ColorScheme-Text {
        color:#dedede
      }</style>
</defs>
<path class="ColorScheme-Text" d="m11.879 4.4453c-0.2814 0-0.50782 0.22642-0.50782 0.50781v0.61328c0 0.2814 0.22642 0.50782 0.50782 0.50782h8.6133c0.28139 0 0.50781-0.22642 0.50781-0.50782v-0.61328c0-0.28139-0.22642-0.50781-0.50781-0.50781h-8.6133zm0 4.0371c-0.2814 0-0.50782 0.22642-0.50782 0.50781v0.61328c0 0.2814 0.22642 0.50782 0.50782 0.50782h8.6133c0.28139 0 0.50781-0.22642 0.50781-0.50782v-0.61328c0-0.28139-0.22642-0.50781-0.50781-0.50781h-8.6133zm-2.2168 0.31055c-0.1593 5.7e-4 -0.31833 0.0616-0.43945 0.18359l-3.3691 3.3945-3.3945-3.3711c-0.24389-0.24216-0.6387-0.24001-0.88086 4e-3 -0.24236 0.2439-0.24022 0.63861 4e-3 0.88086l3.8359 3.8086c0.12195 0.12105 0.28013 0.18026 0.43945 0.17968 0.15925-5.7e-4 0.31832-0.0616 0.43945-0.18359l3.8086-3.8359c0.24225-0.24401 0.2401-0.6387-4e-3 -0.88086-0.12195-0.12107-0.28015-0.18026-0.43945-0.17968zm2.2168 3.4297c-0.2814 0-0.50782 0.22642-0.50782 0.50782v0.61328c0 0.28139 0.22642 0.50781 0.50782 0.50781h8.6133c0.28139 0 0.50781-0.22642 0.50781-0.50781v-0.61328c0-0.2814-0.22642-0.50782-0.50781-0.50782h-8.6133zm-10.385 3.7031c-0.27408 0-0.49414 0.22006-0.49414 0.49414v0.64062c0 0.27409 0.22006 0.49415 0.49414 0.49415h19.012c0.27408 0 0.49414-0.22006 0.49414-0.49415v-0.64062c0-0.27408-0.22006-0.49414-0.49414-0.49414h-19.012z" fill="currentColor"/>
</svg>

<svg xmlns="http://www.w3.org/2000/svg" viewBox="0 0 22 22">
  <defs id="defs3051">
    <style type="text/css" id="current-color-scheme">
      .ColorScheme-Text {
        color:#f2f2f2
      }
      </style>
  </defs>
 <path 
     style="fill:currentColor;fill-opacity:1;stroke:none"      
	 class="ColorScheme-Text"
        d="m 11.87891,4.44531 c -0.2814,0 -0.50782,0.22642 -0.50782,0.50781 l 0,0.61328 c 0,0.2814 0.22642,0.50782 0.50782,0.50782 l 8.61328,0 C 20.77358,6.07422 21,5.8478 21,5.5664 L 21,4.95312 C 21,4.67173 20.77358,4.44531 20.49219,4.44531 l -8.61328,0 z m 0,4.03711 c -0.2814,0 -0.50782,0.22642 -0.50782,0.50781 l 0,0.61328 c 0,0.2814 0.22642,0.50782 0.50782,0.50782 l 8.61328,0 C 20.77358,10.11133 21,9.88491 21,9.60351 L 21,8.99023 C 21,8.70884 20.77358,8.48242 20.49219,8.48242 l -8.61328,0 z M 9.66211,8.79297 C 9.50281,8.79354 9.34378,8.85457 9.22266,8.97656 L 5.85352,12.37109 2.45898,9 C 2.21509,8.75784 1.82028,8.75999 1.57812,9.004 1.33576,9.2479 1.3379,9.64261 1.58212,9.88486 l 3.83594,3.8086 c 0.12195,0.12105 0.28013,0.18026 0.43945,0.17968 0.15925,-5.7e-4 0.31832,-0.0616 0.43945,-0.18359 l 3.8086,-3.83594 C 10.34781,9.6096 10.34566,9.21491 10.10156,8.97275 9.97961,8.85168 9.82141,8.79249 9.66211,8.79307 Z m 2.2168,3.42968 c -0.2814,0 -0.50782,0.22642 -0.50782,0.50782 l 0,0.61328 c 0,0.28139 0.22642,0.50781 0.50782,0.50781 l 8.61328,0 C 20.77358,13.85156 21,13.62514 21,13.34375 l 0,-0.61328 c 0,-0.2814 -0.22642,-0.50782 -0.50781,-0.50782 l -8.61328,0 z M 1.49414,15.92578 C 1.22006,15.92578 1,16.14584 1,16.41992 l 0,0.64062 c 0,0.27409 0.22006,0.49415 0.49414,0.49415 l 19.01172,0 C 20.77994,17.55469 21,17.33463 21,17.06054 l 0,-0.64062 c 0,-0.27408 -0.22006,-0.49414 -0.49414,-0.49414 l -19.01172,0 z"
     />
</svg>
